img/instruction-arrow-3.svg

<svg width="216" height="56" viewBox="0 0 216 56" fill="none" xmlns="http://www.w3.org/2000/svg">
<g clip-path="url(#clip0_1967_30)">
<path d="M215.985 30.6956C216.052 30.4277 215.889 30.1562 215.621 30.0892L211.256 28.9978C210.988 28.9309 210.716 29.0937 210.649 29.3616C210.582 29.6295 210.745 29.901 211.013 29.968L214.894 30.9381L213.924 34.8187C213.857 35.0866 214.019 35.3581 214.287 35.425C214.555 35.492 214.827 35.3291 214.894 35.0612L215.985 30.6956ZM0.551025 1.29415C0.846782 1.89834 1.1489 2.49683 1.45728 3.08965L2.34443 2.62817C2.03981 2.04258 1.74137 1.45136 1.44919 0.854492L0.551025 1.29415ZM3.38197 6.57884C4.05617 7.73323 4.75524 8.86465 5.4784 9.97336L6.31598 9.42704C5.60179 8.33208 4.91137 7.21467 4.24549 6.07452L3.38197 6.57884ZM7.73495 13.2531C8.5186 14.334 9.3263 15.3917 10.1572 16.4264L10.9369 15.8003C10.1162 14.7783 9.3185 13.7337 8.54456 12.6662L7.73495 13.2531ZM12.7247 19.4689C13.6083 20.4658 14.5146 21.4397 15.4427 22.3909L16.1584 21.6925C15.2413 20.7527 14.346 19.7905 13.4731 18.8056L12.7247 19.4689ZM18.292 25.1767C19.2632 26.083 20.2555 26.9668 21.2678 27.8284L21.916 27.0669C20.915 26.215 19.9342 25.3413 18.9742 24.4456L18.292 25.1767ZM24.3588 30.3429C25.406 31.1572 26.4724 31.9499 27.557 32.7212L28.1366 31.9062C27.0634 31.143 26.0084 30.3589 24.9726 29.5535L24.3588 30.3429ZM30.8487 34.9608C31.9602 35.6842 33.0888 36.387 34.2338 37.0693L34.7457 36.2103C33.6119 35.5346 32.4944 34.8388 31.3942 34.1227L30.8487 34.9608ZM37.6877 39.0393C38.8522 39.6749 40.0319 40.2907 41.2261 40.8871L41.6729 39.9924C40.4894 39.4014 39.3204 38.7912 38.1667 38.1616L37.6877 39.0393ZM44.8086 42.5989C46.0142 43.1497 47.233 43.6819 48.4644 44.1958L48.8495 43.2729C47.6282 42.7632 46.4195 42.2355 45.2242 41.6893L44.8086 42.5989ZM52.153 45.6664C53.3905 46.1374 54.6394 46.5909 55.8991 47.027L56.2263 46.0821C54.976 45.6492 53.7366 45.1992 52.5087 44.7318L52.153 45.6664ZM59.6717 48.272C60.934 48.6686 62.206 49.0485 63.4871 49.4122L63.7602 48.4502C62.4879 48.089 61.2247 47.7117 59.9714 47.318L59.6717 48.272ZM67.3242 50.4462C68.6056 50.7735 69.8952 51.0851 71.1922 51.3813L71.4148 50.4064C70.126 50.1121 68.8447 49.8025 67.5716 49.4773L67.3242 50.4462ZM75.0777 52.2184C76.3736 52.4812 77.6762 52.7292 78.9848 52.9625L79.1604 51.9781C77.8594 51.746 76.5645 51.4996 75.2764 51.2384L75.0777 52.2184ZM82.9056 53.6156C84.2124 53.8182 85.5245 54.0067 86.8412 54.1814L86.9727 53.1901C85.6631 53.0164 84.3583 52.8289 83.0587 52.6274L82.9056 53.6156ZM90.7865 54.6621C92.1011 54.8082 93.4198 54.941 94.7417 55.0605L94.8318 54.0646C93.5166 53.9456 92.2047 53.8136 90.8969 53.6682L90.7865 54.6621ZM98.7028 55.3789C100.023 55.4719 101.345 55.552 102.67 55.6196L102.721 54.6209C101.403 54.5537 100.087 54.4739 98.7731 54.3814L98.7028 55.3789ZM106.64 55.7844C107.963 55.8269 109.288 55.8571 110.614 55.8752L110.627 54.8753C109.308 54.8573 107.989 54.8272 106.672 54.7849L106.64 55.7844ZM114.587 55.8937C115.911 55.888 117.236 55.8704 118.56 55.8413L118.538 54.8415C117.22 54.8705 115.901 54.888 114.582 54.8937L114.587 55.8937ZM122.531 55.7193C123.855 55.6671 125.179 55.6035 126.5 55.5287L126.444 54.5303C125.128 54.6048 123.81 54.6681 122.492 54.72L122.531 55.7193ZM130.465 55.2708C131.787 55.1735 133.107 55.0652 134.425 54.946L134.335 53.9501C133.023 54.0687 131.708 54.1766 130.391 54.2734L130.465 55.2708ZM138.379 54.5552C139.698 54.4138 141.013 54.2616 142.325 54.0988L142.202 53.1064C140.896 53.2685 139.585 53.4201 138.272 53.5609L138.379 54.5552ZM146.264 53.577C147.578 53.3918 148.888 53.1961 150.193 52.9901L150.037 52.0024C148.738 52.2075 147.433 52.4024 146.125 52.5868L146.264 53.577ZM154.113 52.3378C155.421 52.1088 156.724 51.8694 158.02 51.6201L157.831 50.6381C156.541 50.8864 155.243 51.1247 153.94 51.3528L154.113 52.3378ZM161.915 50.8363C163.217 50.5628 164.511 50.2792 165.798 49.9856L165.575 49.0107C164.295 49.303 163.006 49.5854 161.71 49.8577L161.915 50.8363ZM169.661 49.0683C170.955 48.7489 172.24 48.4196 173.515 48.0805L173.258 47.1141C171.989 47.4516 170.71 47.7795 169.422 48.0974L169.661 49.0683ZM177.338 47.0256C178.623 46.6583 179.897 46.2811 181.158 45.8941L180.865 44.9381C179.61 45.3231 178.342 45.6986 177.064 46.0641L177.338 47.0256ZM184.931 44.6964C186.205 44.278 187.466 43.8496 188.712 43.4115L188.38 42.4681C187.141 42.9039 185.887 43.3301 184.619 43.7463L184.931 44.6964ZM192.429 42.0601C193.687 41.5873 194.928 41.1045 196.153 40.6118L195.78 39.6841C194.562 40.1738 193.328 40.6539 192.077 41.1241L192.429 42.0601ZM199.818 39.0866C201.048 38.557 202.259 38.0172 203.45 37.4678L203.031 36.5598C201.848 37.1056 200.645 37.6418 199.422 38.1681L199.818 39.0866ZM207.049 35.7466C208.244 35.1543 209.416 34.5518 210.564 33.9396L210.093 33.0573C208.954 33.6647 207.791 34.2626 206.605 34.8506L207.049 35.7466ZM214.067 31.9972C214.637 31.6684 215.201 31.337 215.757 31.0031L215.243 30.1456C214.691 30.4764 214.133 30.8049 213.567 31.1309L214.067 31.9972Z" fill="#707070"/>
</g>
<defs>
<clipPath id="clip0_1967_30">
<rect width="216" height="56" fill="white"/>
</clipPath>
</defs>
</svg>

<svg width="216" height="56" fill="none" xmlns="http://www.w3.org/2000/svg"><g clip-path="url(#clip0_1967_30)"><path d="M215.985 30.696a.5.5 0 00-.364-.607l-4.365-1.091a.5.5 0 00-.243.97l3.881.97-.97 3.88a.5.5 0 10.97.243l1.091-4.365zM.551 1.294c.296.604.598 1.203.906 1.796l.887-.462A81.288 81.288 0 011.45.854l-.898.44zM3.382 6.58a80.822 80.822 0 002.096 3.394l.838-.546a79.82 79.82 0 01-2.07-3.352l-.864.504zm4.353 6.674a81.005 81.005 0 002.422 3.173l.78-.626a80.01 80.01 0 01-2.392-3.134l-.81.587zm4.99 6.216c.883.997 1.79 1.97 2.718 2.922l.715-.698a82.156 82.156 0 01-2.685-2.887l-.748.663zm5.567 5.708c.971.906 1.963 1.79 2.976 2.651l.648-.761a86.296 86.296 0 01-2.942-2.621l-.682.73zm6.067 5.166a93.194 93.194 0 003.198 2.378l.58-.815a92.25 92.25 0 01-3.164-2.352l-.614.789zm6.49 4.618c1.111.723 2.24 1.426 3.385 2.108l.512-.859a99.841 99.841 0 01-3.352-2.087l-.545.838zm6.839 4.078c1.164.636 2.344 1.252 3.538 1.848l.447-.895a108.635 108.635 0 01-3.506-1.83l-.48.877zm7.12 3.56c1.206.55 2.425 1.083 3.656 1.597l.386-.923c-1.222-.51-2.43-1.038-3.626-1.584l-.415.91zm7.345 3.067c1.238.471 2.486.925 3.746 1.361l.327-.945a130.13 130.13 0 01-3.717-1.35l-.356.934zm7.519 2.606c1.262.397 2.534.776 3.815 1.14l.273-.962a142.499 142.499 0 01-3.789-1.132l-.3.954zm7.652 2.174c1.282.328 2.571.64 3.868.935l.223-.975c-1.289-.294-2.57-.603-3.843-.929l-.248.97zm7.754 1.772c1.296.263 2.598.511 3.907.744l.175-.984a168.1 168.1 0 01-3.884-.74l-.198.98zm7.828 1.398c1.306.202 2.618.39 3.935.565l.132-.99c-1.31-.175-2.615-.362-3.914-.564l-.153.989zm7.88 1.046c1.315.146 2.634.279 3.956.398l.09-.995a193.036 193.036 0 01-3.935-.397l-.11.994zm7.917.717c1.32.093 2.642.173 3.967.24l.051-.998a204.477 204.477 0 01-3.948-.24l-.07.998zm7.937.405c1.323.043 2.648.073 3.974.091l.013-1a214.338 214.338 0 01-3.955-.09l-.032 1zm7.947.11a228.83 228.83 0 003.973-.053l-.022-1c-1.318.03-2.637.047-3.956.053l.005 1zm7.944-.175c1.324-.052 2.648-.116 3.969-.19l-.056-.999c-1.316.075-2.634.138-3.952.19l.039 1zm7.934-.448c1.322-.098 2.642-.206 3.96-.325l-.09-.996a223.73 223.73 0 01-3.944.323l.074.998zm7.914-.716c1.319-.141 2.634-.293 3.946-.456l-.123-.993c-1.306.163-2.617.314-3.93.455l.107.994zm7.885-.978c1.314-.185 2.624-.38 3.929-.587l-.156-.988a239.2 239.2 0 01-3.912.585l.139.99zm7.849-1.24c1.308-.228 2.611-.468 3.907-.717l-.189-.982c-1.29.248-2.588.487-3.891.715l.173.985zm7.802-1.5c1.302-.274 2.596-.558 3.883-.851l-.223-.975c-1.28.292-2.569.574-3.865.847l.205.978zm7.746-1.769c1.294-.32 2.579-.648 3.854-.987l-.257-.967c-1.269.338-2.548.666-3.836.983l.239.971zm7.677-2.042a211.35 211.35 0 003.82-1.132l-.293-.956c-1.255.385-2.523.76-3.801 1.126l.274.962zm7.593-2.33c1.274-.418 2.535-.846 3.781-1.285l-.332-.943c-1.239.436-2.493.862-3.761 1.278l.312.95zm7.498-2.636c1.258-.473 2.499-.956 3.724-1.448l-.373-.928c-1.218.49-2.452.97-3.703 1.44l.352.936zm7.389-2.973c1.23-.53 2.441-1.07 3.632-1.62l-.419-.907a152.637 152.637 0 01-3.609 1.608l.396.919zm7.231-3.34a132.874 132.874 0 003.515-1.807l-.471-.883a132.343 132.343 0 01-3.488 1.794l.444.896zm7.018-3.75c.57-.329 1.134-.66 1.69-.994l-.514-.857c-.552.33-1.11.659-1.676.985l.5.866z" fill="#707070"/></g><defs><clipPath id="clip0_1967_30"><path fill="#fff" d="M0 0h216v56H0z"/></clipPath></defs></svg>
